icons/midnadark/apps/48/kompare.svg

<?xml version="1.0" encoding="UTF-8" standalone="no"?>
<!-- Created with Inkscape (http://www.inkscape.org/) -->

<svg
   xmlns:osb="http://www.openswatchbook.org/uri/2009/osb"
   xmlns:dc="http://purl.org/dc/elements/1.1/"
   xmlns:cc="http://creativecommons.org/ns#"
   xmlns:rdf="http://www.w3.org/1999/02/22-rdf-syntax-ns#"
   xmlns:svg="http://www.w3.org/2000/svg"
   xmlns="http://www.w3.org/2000/svg"
   xmlns:xlink="http://www.w3.org/1999/xlink"
   xmlns:sodipodi="http://sodipodi.sourceforge.net/DTD/sodipodi-0.dtd"
   xmlns:inkscape="http://www.inkscape.org/namespaces/inkscape"
   width="48"
   height="48"
   id="svg5453"
   version="1.1"
   inkscape:version="0.91 r13725"
   sodipodi:docname="kompare.svg">
  <defs
     id="defs5455">
    <linearGradient
       gradientUnits="userSpaceOnUse"
       y2="-26.047026"
       x2="-125.19291"
       y1="73.496605"
       x1="-123.9715"
       id="linearGradient4738-8"
       xlink:href="#linearGradient4270"
       inkscape:collect="always" />
    <linearGradient
       id="linearGradient4207"
       osb:paint="gradient">
      <stop
         style="stop-color:#3498db;stop-opacity:1;"
         offset="0"
         id="stop3371" />
      <stop
         style="stop-color:#3498db;stop-opacity:0;"
         offset="1"
         id="stop3373" />
    </linearGradient>
    <linearGradient
       id="linearGradient4270">
      <stop
         id="stop4272"
         style="stop-color:#535e66;stop-opacity:1"
         offset="0" />
      <stop
         id="stop4274"
         style="stop-color:#7d8b98;stop-opacity:1"
         offset="1" />
    </linearGradient>
  </defs>
  <sodipodi:namedview
     id="base"
     pagecolor="#5a5a5a"
     bordercolor="#666666"
     borderopacity="1.0"
     inkscape:pageopacity="0"
     inkscape:pageshadow="2"
     inkscape:zoom="4.3179308"
     inkscape:cx="5.7909726"
     inkscape:cy="27.306194"
     inkscape:document-units="px"
     inkscape:current-layer="layer1"
     showgrid="false"
     fit-margin-top="0"
     fit-margin-left="0"
     fit-margin-right="0"
     fit-margin-bottom="0"
     inkscape:window-width="1366"
     inkscape:window-height="685"
     inkscape:window-x="0"
     inkscape:window-y="0"
     inkscape:window-maximized="1"
     inkscape:showpageshadow="false"
     borderlayer="true"
     showguides="false"
     inkscape:snap-bbox="true"
     inkscape:snap-bbox-edge-midpoints="true"
     showborder="false">
    <inkscape:grid
       type="xygrid"
       id="grid4063" />
    <sodipodi:guide
       position="1.1650391e-05,47.999996"
       orientation="4,0"
       id="guide4146" />
    <sodipodi:guide
       position="1.1650391e-05,43.999996"
       orientation="0,48"
       id="guide4148" />
    <sodipodi:guide
       position="48.000012,43.999996"
       orientation="-4,0"
       id="guide4150" />
    <sodipodi:guide
       position="48.000012,47.999996"
       orientation="0,-48"
       id="guide4152" />
    <sodipodi:guide
       position="1.1650391e-05,4.0000264"
       orientation="4,0"
       id="guide4154" />
    <sodipodi:guide
       position="1.1650391e-05,2.6367188e-05"
       orientation="0,48"
       id="guide4156" />
    <sodipodi:guide
       position="48.000012,2.6367188e-05"
       orientation="-4,0"
       id="guide4158" />
    <sodipodi:guide
       position="48.000012,4.0000264"
       orientation="0,-48"
       id="guide4160" />
    <sodipodi:guide
       position="48.000012,48.000026"
       orientation="0,-4"
       id="guide4162" />
    <sodipodi:guide
       position="44.000012,48.000026"
       orientation="48,0"
       id="guide4164" />
    <sodipodi:guide
       position="44.000012,2.6367188e-05"
       orientation="0,4"
       id="guide4166" />
    <sodipodi:guide
       position="48.000012,2.6367188e-05"
       orientation="-48,0"
       id="guide4168" />
    <sodipodi:guide
       position="4.0000422,48.000026"
       orientation="0,-4"
       id="guide4170" />
    <sodipodi:guide
       position="4.2167969e-05,48.000026"
       orientation="48,0"
       id="guide4172" />
    <sodipodi:guide
       position="4.2167969e-05,2.6367188e-05"
       orientation="0,4"
       id="guide4174" />
    <sodipodi:guide
       position="4.0000422,2.6367188e-05"
       orientation="-48,0"
       id="guide4176" />
  </sodipodi:namedview>
  <metadata
     id="metadata5458">
    <rdf:RDF>
      <cc:Work
         rdf:about="">
        <dc:format>image/svg+xml</dc:format>
        <dc:type
           rdf:resource="http://purl.org/dc/dcmitype/StillImage" />
        <dc:title />
      </cc:Work>
    </rdf:RDF>
  </metadata>
  <g
     inkscape:label="Capa 1"
     inkscape:groupmode="layer"
     id="layer1"
     transform="translate(-384.57143,-499.798)">
    <g
       transform="matrix(0.03283533,0,0,0.03283533,393.26771,510.79435)"
       style="fill:#ffffff;fill-opacity:0.87309648"
       id="g4637">
      <rect
         ry="6.2409248"
         y="-27.421095"
         x="-175.27007"
         height="100.45968"
         width="97.100838"
         id="rect4177-36"
         style="opacity:1;fill:url(#linearGradient4738-8);fill-opacity:1.0;fill-rule:evenodd;stroke:none;stroke-width:8;stroke-linecap:round;stroke-linejoin:round;stroke-miterlimit:4;stroke-dasharray:none;stroke-dashoffset:0;stroke-opacity:1"
         transform="matrix(14.55151,0,0,14.55151,2310.037,64.124574)" />
      <circle
         r="3.5"
         cy="-17.745447"
         cx="-164.03235"
         id="path4181-51"
         style="opacity:1;fill:#e7e9eb;fill-opacity:1;fill-rule:evenodd;stroke:none;stroke-width:8;stroke-linecap:round;stroke-linejoin:round;stroke-miterlimit:4;stroke-dasharray:none;stroke-dashoffset:0;stroke-opacity:1"
         transform="matrix(14.55151,0,0,14.55151,2310.037,64.124574)" />
      <circle
         r="3.5"
         cy="-17.745001"
         cx="-154.78738"
         id="path4181-5-81"
         style="opacity:1;fill:#e7e9eb;fill-opacity:1;fill-rule:evenodd;stroke:none;stroke-width:8;stroke-linecap:round;stroke-linejoin:round;stroke-miterlimit:4;stroke-dasharray:none;stroke-dashoffset:0;stroke-opacity:1"
         transform="matrix(14.55151,0,0,14.55151,2310.037,64.124574)" />
      <circle
         r="3.5"
         cy="-17.745001"
         cx="-145.45538"
         id="path4181-50-34"
         style="opacity:1;fill:#e7e9eb;fill-opacity:1;fill-rule:evenodd;stroke:none;stroke-width:8;stroke-linecap:round;stroke-linejoin:round;stroke-miterlimit:4;stroke-dasharray:none;stroke-dashoffset:0;stroke-opacity:1"
         transform="matrix(14.55151,0,0,14.55151,2310.037,64.124574)" />
      <path
         style="fill:#ffffff;fill-opacity:0.8465116"
         d="M 24 16.300781 C 17.249056 16.300781 11.430608 20.280538 8.7578125 26.023438 C 8.6757242 26.197465 8.6757242 26.400814 8.7578125 26.578125 C 11.430608 32.320991 17.249089 36.300781 24 36.300781 C 30.750911 36.300781 36.569392 32.321024 39.242188 26.578125 C 39.324276 26.404098 39.324276 26.200748 39.242188 26.023438 C 36.569392 20.280538 30.750944 16.300781 24 16.300781 z M 24 19.402344 C 27.812182 19.402344 30.898438 22.491883 30.898438 26.300781 C 30.898438 30.10968 27.808898 33.201172 24 33.201172 C 20.187818 33.201172 17.101562 30.10968 17.101562 26.300781 C 17.101562 22.488599 20.191102 19.402344 24 19.402344 z M 24 21.882812 A 4.4163519 4.4163519 0 0 0 19.583984 26.298828 A 4.4163519 4.4163519 0 0 0 24 30.714844 A 4.4163519 4.4163519 0 0 0 28.416016 26.298828 A 4.4163519 4.4163519 0 0 0 24 21.882812 z "
         transform="matrix(30.455001,0,0,30.455001,-264.84521,-334.89385)"
         id="path5" />
    </g>
  </g>
</svg>

<svg xmlns="http://www.w3.org/2000/svg" viewBox="0 0 48 48"><defs><linearGradient gradientUnits="userSpaceOnUse" y2="-314.9" x2="488.29" y1="1133.61" x1="506.06" id="0"><stop stop-color="#535e66"/><stop offset="1" stop-color="#7d8b98"/></linearGradient></defs><g transform="matrix(.03284 0 0 .03284 8.696 10.996)" fill="#fff" fill-opacity=".873"><g fill-rule="evenodd" fill-opacity="1"><rect y="-334.89" x="-240.41" height="1461.84" width="1412.96" fill="url(#0)" rx="90.81" stroke-width="14.552"/><g fill="#e7e9eb" transform="matrix(14.55151 0 0 14.55151 2310.04 64.12)"><circle r="3.5" cy="-17.745" cx="-164.03"/><circle r="3.5" cy="-17.745" cx="-154.79"/><circle r="3.5" cy="-17.745" cx="-145.46"/></g></g><path d="m24 16.301c-6.751 0-12.569 3.98-15.242 9.723-.082.174-.082.377 0 .555 2.673 5.743 8.491 9.723 15.242 9.723 6.751 0 12.569-3.98 15.242-9.723.082-.174.082-.377 0-.555-2.673-5.743-8.491-9.723-15.242-9.723m0 3.102c3.812 0 6.898 3.09 6.898 6.898 0 3.809-3.09 6.9-6.898 6.9-3.812 0-6.898-3.091-6.898-6.9 0-3.812 3.09-6.898 6.898-6.898m0 2.480468a4.416352 4.416352 0 0 0 -4.416016 4.416016 4.416352 4.416352 0 0 0 4.416016 4.416016 4.416352 4.416352 0 0 0 4.416016 -4.416016 4.416352 4.416352 0 0 0 -4.416016 -4.416016" transform="matrix(30.455 0 0 30.455-264.85-334.89)" fill="#fff" fill-opacity=".847"/></g></svg>
